X: 1
T: Captain Carswell
M: 4/4
L: 1/8
R: strathspey
K: Ador
|:A2 A>B A2 B>d|e>dB<d e>dB>A|G>AB>A B2 G>B|d>ed<B e2 d>B|
A2 A>B A2 B>d|e>dB<d e>dB>A|G2 A>B e2 d>B|1e2 d>B A2 A>G:|2e2 d>B A2 A>d||
e>fe<d e2 a2|g>ef<d e2 d>B|d>BG>B d2 B>d|e>dB>d d2 B>d|
e>fe<d e2 a2|g>ef<d e2 d>B|G2 A>B e2 d>B|1e2 d>B A2 A>d:|2e2 d>B A2 A>G||
